X:0520
T:The Fumbler.
M:6/8
L:1/8
Q:3/8=120
I: :: ::
N:the last two slurs could be F(A/B/c) c(A/B/c)
Z:Jack Campin * www.campin.me.uk * 2009
K:F
g|f/g/ag  fcA     |fcA f2g|fag      fcA     |GAG B2
a|gfe     fcA     |FAc fcA|BgB      AfA     |GAG B2::
d|FA/B/c  cAc     |fcA fcA|F(A/B/c) c(A/B/c)|dBG dBG|
 (FA/B/c) c(A/B/)c|afa geg|fdf      cAF     |GAG B2:|

